Obsidian-SemiLight/actions/22s/aggregation.svg

<svg viewBox="0 0 22 22" xmlns="http://www.w3.org/2000/svg"><g fill="#4d4d4d"><path d="m10 3v8.666016l-2.5 3.333984 3 4 3-4-2.5-3.333984v-8.666016zm.5 9.667969 1.75 2.332031-1.75 2.332031-1.75-2.332031z"/><path d="m10.5 12.667969-1.75 2.332031 1.75 2.332031 1.75-2.332031z" fill-opacity=".5"/></g></svg>

<svg xmlns="http://www.w3.org/2000/svg" viewBox="0 0 22 22">
  <defs id="defs3051">
    <style type="text/css" id="current-color-scheme">
      .ColorScheme-Text {
        color:#4d4d4d;
      }
      </style>
  </defs>
 <path 
     style="fill:currentColor;fill-opacity:1;stroke:none" 
     d="M 10 3 L 10 11.666016 L 7.5 15 L 10.5 19 L 13.5 15 L 11 11.666016 L 11 3 L 10 3 z M 10.5 12.667969 L 12.25 15 L 10.5 17.332031 L 8.75 15 L 10.5 12.667969 z "
     class="ColorScheme-Text"
     />
 <path 
     style="fill:currentColor;fill-opacity:0.5;stroke:none" 
     d="M 10.5 12.667969 L 8.75 15 L 10.5 17.332031 L 12.25 15 L 10.5 12.667969 z "
     class="ColorScheme-Text"
     />
</svg>
